svg/color/sei.svg

<svg width="64" height="65" viewBox="0 0 64 65" fill="none" xmlns="http://www.w3.org/2000/svg">
<rect y="0.303711" width="64" height="64" rx="32" fill="white"/>
<rect x="0.5" y="0.803711" width="63" height="63" rx="31.5" stroke="#070B14" stroke-opacity="0.15"/>
<mask id="mask0_11313_5387" style="mask-type:luminance" maskUnits="userSpaceOnUse" x="4" y="4" width="56" height="56">
<path d="M59.5234 4.78064H4.47681V59.8273H59.5234V4.78064Z" fill="white"/>
</mask>
<g mask="url(#mask0_11313_5387)">
<path fill-rule="evenodd" clip-rule="evenodd" d="M31.8715 59.8273C40.027 59.8273 47.3542 56.28 52.3942 50.6443C50.0498 48.6067 46.5165 48.4828 44.0206 50.4969L43.5438 50.8817C38.9739 54.5691 32.3148 54.0245 28.4048 49.6435C26.2722 47.2541 22.6199 47.0102 20.1884 49.0946L14.6908 53.8079C19.3995 57.5748 25.3724 59.8273 31.8715 59.8273ZM40.7952 46.4996C45.148 42.9873 51.2661 43.1132 55.4526 46.5055C57.955 42.3594 59.3946 37.4998 59.3946 32.304C59.3946 26.5304 57.6171 21.1722 54.5792 16.7467C52.621 16.3296 50.4982 16.8168 48.8869 18.2446L48.4283 18.651C44.0333 22.5456 37.3564 22.3089 33.2483 18.113C31.0078 15.8246 27.348 15.7495 25.0153 17.944L18.6178 23.9628L15.0983 20.222L21.4959 14.2031C25.8656 10.0922 32.7211 10.2329 36.9184 14.5198C39.1113 16.7596 42.6758 16.886 45.0219 14.8069L45.4806 14.4006C46.9047 13.1385 48.5523 12.2877 50.2775 11.8403C45.4013 7.45154 38.9482 4.78064 31.8715 4.78064C17.8995 4.78064 6.35921 15.1915 4.58469 28.679C8.82853 26.6424 14.0633 27.4261 17.5235 30.9696C19.7079 33.2065 23.2252 33.4426 25.6891 31.5176L29.2661 28.7232C33.7617 25.211 40.1166 25.3812 44.4178 29.1285L51.3819 35.196L48.0081 39.0685L41.044 33.0012C38.5982 30.8702 34.9846 30.7735 32.4283 32.7706L28.8513 35.5653C24.3244 39.1017 17.8622 38.6679 13.8487 34.5579C11.515 32.1681 7.69802 32.0846 5.26211 34.3704L4.48804 35.0967C5.06733 40.8453 7.41558 46.072 10.9802 50.2239L16.8454 45.1954C21.4001 41.2905 28.2419 41.7476 32.2367 46.2235C34.3242 48.5623 37.8788 48.8529 40.3184 46.8843L40.7952 46.4996Z" fill="url(#paint0_linear_11313_5387)"/>
</g>
<defs>
<linearGradient id="paint0_linear_11313_5387" x1="31.9413" y1="4.78064" x2="31.9413" y2="59.8273" gradientUnits="userSpaceOnUse">
<stop stop-color="#8F305D"/>
<stop offset="1" stop-color="#E33C3F"/>
</linearGradient>
</defs>
</svg>

<svg xmlns="http://www.w3.org/2000/svg" width="64" height="65" fill="none" viewBox="0 0 64 65"><rect width="64" height="64" y=".304" fill="#fff" rx="32"/><rect width="63" height="63" x=".5" y=".804" stroke="#070B14" stroke-opacity=".15" rx="31.5"/><mask id="sei_svg-a" width="56" height="56" x="4" y="4" maskUnits="userSpaceOnUse" style="mask-type:luminance"><path fill="#fff" d="M59.523 4.78H4.477v55.047h55.046z"/></mask><g mask="url(#sei_svg-a)"><path fill="url(#sei_svg-b)" fill-rule="evenodd" d="M31.872 59.827c8.155 0 15.482-3.547 20.522-9.183a6.53 6.53 0 0 0-8.373-.147l-.477.385a11.02 11.02 0 0 1-15.14-1.238 5.88 5.88 0 0 0-8.216-.55l-5.497 4.714a27.4 27.4 0 0 0 17.18 6.02M40.795 46.5c4.353-3.513 10.471-3.387 14.658.005a27.4 27.4 0 0 0 3.942-14.201 27.4 27.4 0 0 0-4.816-15.557 6.52 6.52 0 0 0-5.692 1.498l-.459.406a11.02 11.02 0 0 1-15.18-.538 5.88 5.88 0 0 0-8.233-.169l-6.397 6.019-3.52-3.741 6.398-6.019c4.37-4.11 11.225-3.97 15.422.317a5.88 5.88 0 0 0 8.104.287l.459-.406a11.6 11.6 0 0 1 4.797-2.56 27.42 27.42 0 0 0-18.406-7.06C17.9 4.78 6.358 15.19 4.585 28.679c4.244-2.037 9.478-1.253 12.938 2.29a6.134 6.134 0 0 0 8.166.549l3.577-2.795a11.91 11.91 0 0 1 15.152.406l6.964 6.067-3.374 3.873L41.044 33a6.77 6.77 0 0 0-8.616-.23l-3.577 2.794a11.27 11.27 0 0 1-15.002-1.007 6.134 6.134 0 0 0-8.587-.188l-.774.727a27.4 27.4 0 0 0 6.492 15.127l5.865-5.029c4.555-3.904 11.397-3.447 15.392 1.029a5.88 5.88 0 0 0 8.081.66z" clip-rule="evenodd"/></g><defs><linearGradient id="sei_svg-b" x1="31.941" x2="31.941" y1="4.781" y2="59.827" gradientUnits="userSpaceOnUse"><stop stop-color="#8F305D"/><stop offset="1" stop-color="#E33C3F"/></linearGradient></defs></svg>
